src/scalable/mimetypes/application-x-zip.svg

<?xml version="1.0" encoding="UTF-8" standalone="no"?>
<svg
   xmlns:dc="http://purl.org/dc/elements/1.1/"
   xmlns:cc="http://creativecommons.org/ns#"
   xmlns:rdf="http://www.w3.org/1999/02/22-rdf-syntax-ns#"
   xmlns:svg="http://www.w3.org/2000/svg"
   xmlns="http://www.w3.org/2000/svg"
   xmlns:xlink="http://www.w3.org/1999/xlink"
   xmlns:sodipodi="http://sodipodi.sourceforge.net/DTD/sodipodi-0.dtd"
   xmlns:inkscape="http://www.inkscape.org/namespaces/inkscape"
   width="48px"
   height="48px"
   viewBox="0 0 48 48"
   version="1.1"
   id="svg39"
   sodipodi:docname="application-x-zip.svg"
   inkscape:version="0.92.2 2405546, 2018-03-11">
  <metadata
     id="metadata43">
    <rdf:RDF>
      <cc:Work
         rdf:about="">
        <dc:format>image/svg+xml</dc:format>
        <dc:type
           rdf:resource="http://purl.org/dc/dcmitype/StillImage" />
      </cc:Work>
    </rdf:RDF>
  </metadata>
  <sodipodi:namedview
     pagecolor="#ffffff"
     bordercolor="#666666"
     borderopacity="1"
     objecttolerance="10"
     gridtolerance="10"
     guidetolerance="10"
     inkscape:pageopacity="0"
     inkscape:pageshadow="2"
     inkscape:window-width="1920"
     inkscape:window-height="1051"
     id="namedview41"
     showgrid="false"
     inkscape:zoom="13.906433"
     inkscape:cx="36.751959"
     inkscape:cy="15.038147"
     inkscape:window-x="0"
     inkscape:window-y="29"
     inkscape:window-maximized="1"
     inkscape:current-layer="svg39" />
  <!-- Generator: Sketch 41.2 (35397) - http://www.bohemiancoding.com/sketch -->
  <title
     id="title2">application-x-zip</title>
  <desc
     id="desc4">Created with Sketch.</desc>
  <defs
     id="defs11">
    <linearGradient
       inkscape:collect="always"
       xlink:href="#linearGradient875"
       id="linearGradient877"
       x1="32.74707"
       y1="44"
       x2="32.74707"
       y2="17.242188"
       gradientUnits="userSpaceOnUse" />
    <linearGradient
       inkscape:collect="always"
       id="linearGradient875">
      <stop
         style="stop-color:#000000;stop-opacity:1;"
         offset="0"
         id="stop871" />
      <stop
         style="stop-color:#000000;stop-opacity:0;"
         offset="1"
         id="stop873" />
    </linearGradient>
  </defs>
  <g
     id="g829">
    <rect
       rx="2"
       ry="1.9047618"
       y="4"
       x="6"
       height="40"
       width="36"
       id="rect834"
       style="opacity:1;fill:#8bc34a;fill-opacity:1;stroke:none;stroke-width:0.92582005;stroke-linecap:round;stroke-linejoin:round;stroke-miterlimit:4;stroke-dasharray:none;stroke-opacity:0.05882353;paint-order:markers stroke fill" />
    <path
       inkscape:connector-curvature="0"
       id="rect866"
       d="M 42,17.242188 A 40,40 0 0 1 23.494141,44 H 40 c 1.108,0 2,-0.849059 2,-1.904297 z"
       style="opacity:0.15;fill:url(#linearGradient877);fill-opacity:1;stroke:none;stroke-width:0.92582005;stroke-linecap:round;stroke-linejoin:round;stroke-miterlimit:4;stroke-dasharray:none;stroke-opacity:0.05882353;paint-order:markers stroke fill" />
  </g>
  <path
     style="fill:#ffffff;fill-rule:evenodd;stroke:none;stroke-width:1"
     d="M 23 29 C 22.446 29 22 29.446 22 30 L 22 36 C 22 36.554 22.446 37 23 37 L 35 37 C 35.554 37 36 36.554 36 36 L 36 30 C 36 29.446 35.554 29 35 29 L 23 29 z M 29.095703 30.744141 C 29.226563 30.744141 29.333008 30.788089 29.414062 30.875 C 29.495113 30.96191 29.535156 31.093748 29.535156 31.271484 L 29.535156 34.65625 C 29.535156 34.833985 29.495114 34.966797 29.414062 35.054688 C 29.333012 35.142578 29.226563 35.185547 29.095703 35.185547 C 28.970702 35.185547 28.868164 35.141605 28.787109 35.052734 C 28.706059 34.963864 28.664062 34.832032 28.664062 34.65625 L 28.664062 31.271484 C 28.664062 31.095701 28.705079 30.964844 28.785156 30.876953 C 28.865236 30.789063 28.968749 30.744141 29.095703 30.744141 z M 24.949219 30.818359 L 27.392578 30.818359 C 27.708985 30.818359 27.867187 30.964843 27.867188 31.259766 C 27.867188 31.400392 27.841792 31.513671 27.789062 31.597656 C 27.736332 31.681636 27.628907 31.816406 27.46875 32.003906 L 25.40625 34.458984 L 27.679688 34.458984 C 27.814453 34.458984 27.916015 34.487299 27.982422 34.542969 C 28.048832 34.598629 28.082031 34.675781 28.082031 34.775391 C 28.082031 34.878907 28.048832 34.960936 27.982422 35.021484 C 27.916012 35.082034 27.814453 35.113281 27.679688 35.113281 L 24.890625 35.113281 C 24.701171 35.113281 24.558595 35.069336 24.462891 34.984375 C 24.367191 34.899415 24.320313 34.78711 24.320312 34.644531 C 24.320312 34.595701 24.32811 34.550782 24.34375 34.509766 C 24.35938 34.468746 24.37988 34.42871 24.40625 34.392578 C 24.43262 34.356448 24.468752 34.311525 24.515625 34.255859 C 24.562505 34.200199 24.603515 34.152344 24.638672 34.111328 L 26.845703 31.470703 L 24.949219 31.470703 C 24.816406 31.470703 24.717774 31.441402 24.650391 31.382812 C 24.583011 31.324223 24.548828 31.248048 24.548828 31.152344 C 24.548828 31.052734 24.583007 30.97168 24.650391 30.910156 C 24.717771 30.848636 24.816406 30.818359 24.949219 30.818359 z M 31.058594 30.818359 L 32.173828 30.818359 C 32.503907 30.818359 32.757812 30.843751 32.935547 30.894531 C 33.111329 30.943361 33.264647 31.023437 33.392578 31.136719 C 33.520508 31.250001 33.617187 31.38867 33.683594 31.552734 C 33.750004 31.716797 33.783203 31.902342 33.783203 32.107422 C 33.783203 32.544924 33.648439 32.875976 33.378906 33.101562 C 33.109373 33.327151 32.707033 33.439453 32.173828 33.439453 L 31.376953 33.439453 L 31.376953 34.65625 C 31.376953 34.830079 31.335933 34.960937 31.253906 35.050781 C 31.171876 35.140631 31.068359 35.185547 30.943359 35.185547 C 30.812499 35.185547 30.707031 35.141605 30.626953 35.052734 C 30.546873 34.963864 30.507812 34.833985 30.507812 34.662109 L 30.507812 31.351562 C 30.507812 31.160155 30.550776 31.023438 30.638672 30.941406 C 30.726562 30.859376 30.867186 30.818359 31.058594 30.818359 z M 31.376953 31.470703 L 31.376953 32.783203 L 31.962891 32.783203 C 32.16797 32.783203 32.34082 32.76172 32.478516 32.71875 C 32.616212 32.67578 32.720703 32.605469 32.792969 32.507812 C 32.865239 32.410153 32.900391 32.283204 32.900391 32.125 C 32.900391 31.935546 32.845707 31.78125 32.734375 31.662109 C 32.609374 31.535155 32.351565 31.470703 31.962891 31.470703 L 31.376953 31.470703 z "
     id="Rectangle-337" />
  <polygon
     id="Rectangle-327"
     points="12,12 12,10 14.666667,10 16,11 14.666667,12 "
     style="fill:#ffffff;fill-rule:evenodd;stroke:none;stroke-width:1" />
  <polygon
     id="polygon17"
     transform="matrix(-1,0,0,1,32,0)"
     points="14,14 14,12 16.666667,12 18,13 16.666667,14 "
     style="fill:#ffffff;fill-rule:evenodd;stroke:none;stroke-width:1" />
  <polygon
     id="polygon19"
     transform="matrix(-1,0,0,1,32,0)"
     points="14,18 14,16 16.666667,16 18,17 16.666667,18 "
     style="fill:#ffffff;fill-rule:evenodd;stroke:none;stroke-width:1" />
  <polygon
     id="polygon21"
     points="12,16 12,14 14.666667,14 16,15 14.666667,16 "
     style="fill:#ffffff;fill-rule:evenodd;stroke:none;stroke-width:1" />
  <polygon
     id="polygon23"
     transform="matrix(-1,0,0,1,32,0)"
     points="14,22 14,20 16.666667,20 18,21 16.666667,22 "
     style="fill:#ffffff;fill-rule:evenodd;stroke:none;stroke-width:1" />
  <polygon
     id="polygon25"
     points="12,20 12,18 14.666667,18 16,19 14.666667,20 "
     style="fill:#ffffff;fill-rule:evenodd;stroke:none;stroke-width:1" />
  <polygon
     id="polygon27"
     transform="matrix(-1,0,0,1,32,0)"
     points="14,26 14,24 16.666667,24 18,25 16.666667,26 "
     style="fill:#ffffff;fill-rule:evenodd;stroke:none;stroke-width:1" />
  <polygon
     id="polygon29"
     points="12,24 12,22 14.666667,22 16,23 14.666667,24 "
     style="fill:#ffffff;fill-rule:evenodd;stroke:none;stroke-width:1" />
  <polygon
     id="polygon31"
     transform="matrix(-1,0,0,1,32,0)"
     points="14,30 14,28 16.666667,28 18,29 16.666667,30 "
     style="fill:#ffffff;fill-rule:evenodd;stroke:none;stroke-width:1" />
  <polygon
     id="polygon33"
     points="12,28 12,26 14.666667,26 16,27 14.666667,28 "
     style="fill:#ffffff;fill-rule:evenodd;stroke:none;stroke-width:1" />
  <path
     d="m 15,37 c 3,0 1,-2.619288 1,-4 0,-1.380712 0,-2 -1,-2 -1,0 -1,0.619288 -1,2 0,1.380712 -2,4 1,4 z m 0,-0.634766 c 0.552285,0 1,-0.447715 1,-1 0,-0.552284 -0.447715,-1 -1,-1 -0.552285,0 -1,0.447716 -1,1 0,0.552285 0.447715,1 1,1 z"
     id="Combined-Shape"
     inkscape:connector-curvature="0"
     style="fill:#ffffff;fill-rule:evenodd;stroke:none;stroke-width:1" />
</svg>

<svg xmlns="http://www.w3.org/2000/svg" xmlns:xlink="http://www.w3.org/1999/xlink" width="48" height="48"><defs><linearGradient xlink:href="#a" id="b" x1="32.747" y1="44" x2="32.747" y2="17.242" gradientUnits="userSpaceOnUse"/><linearGradient id="a"><stop offset="0"/><stop offset="1" stop-opacity="0"/></linearGradient></defs><g paint-order="markers stroke fill"><rect rx="2" ry="1.905" y="4" x="6" height="40" width="36" fill="#8bc34a"/><path d="M42 17.242A40 40 0 0 1 23.494 44H40c1.108 0 2-.85 2-1.904z" opacity=".15" fill="url(#b)"/></g><path d="M23 29c-.554 0-1 .446-1 1v6c0 .554.446 1 1 1h12c.554 0 1-.446 1-1v-6c0-.554-.446-1-1-1H23zm6.096 1.744c.13 0 .237.044.318.131.081.087.121.219.121.396v3.385c0 .178-.04.31-.12.399a.413.413 0 0 1-.32.13.399.399 0 0 1-.308-.132c-.08-.09-.123-.221-.123-.397v-3.385c0-.175.041-.306.121-.394a.402.402 0 0 1 .31-.133zm-4.147.074h2.444c.316 0 .474.147.474.442 0 .14-.025.254-.078.338-.053.084-.16.218-.32.406l-2.063 2.455h2.274c.134 0 .236.028.302.084.067.056.1.133.1.232a.317.317 0 0 1-.1.246c-.066.061-.168.092-.302.092h-2.79c-.189 0-.331-.044-.427-.129a.43.43 0 0 1-.143-.34c0-.048.008-.093.024-.134a.501.501 0 0 1 .062-.117c.027-.037.063-.081.11-.137l.123-.145 2.207-2.64h-1.897c-.133 0-.231-.03-.299-.088a.29.29 0 0 1-.101-.23c0-.1.034-.181.101-.243.068-.061.166-.092.3-.092zm6.11 0h1.115c.33 0 .584.026.762.077a1.095 1.095 0 0 1 .748.658c.066.164.1.35.1.554 0 .438-.136.769-.405.995-.27.225-.672.337-1.205.337h-.797v1.217c0 .174-.041.305-.123.395a.402.402 0 0 1-.31.135.405.405 0 0 1-.317-.133c-.08-.09-.12-.219-.12-.39v-3.311c0-.192.044-.329.132-.41.088-.083.228-.124.42-.124zm.318.653v1.312h.586c.205 0 .378-.021.516-.064a.598.598 0 0 0 .314-.211.626.626 0 0 0 .107-.383.65.65 0 0 0-.166-.463c-.125-.127-.382-.191-.771-.191h-.586zM12 12v-2h2.667L16 11l-1.333 1zM18 14v-2h-2.667L14 13l1.333 1zM18 18v-2h-2.667L14 17l1.333 1zM12 16v-2h2.667L16 15l-1.333 1zM18 22v-2h-2.667L14 21l1.333 1zM12 20v-2h2.667L16 19l-1.333 1zM18 26v-2h-2.667L14 25l1.333 1zM12 24v-2h2.667L16 23l-1.333 1zM18 30v-2h-2.667L14 29l1.333 1zM12 28v-2h2.667L16 27l-1.333 1zM15 37c3 0 1-2.62 1-4s0-2-1-2-1 .62-1 2-2 4 1 4zm0-.635a1 1 0 1 0 0-2 1 1 0 0 0 0 2z" fill="#fff" fill-rule="evenodd"/></svg>
